svg/fluentui-system-icons/ic_fluent_shield_checkmark_16_regular.svg

<svg width="16" height="16" viewBox="0 0 16 16" fill="none" xmlns="http://www.w3.org/2000/svg">
<path d="M7.64728 2.14638C7.84268 1.95105 8.15946 1.95123 8.35464 2.14678C9.5947 3.38913 10.9689 4 12.5 4C12.7761 4 13 4.22386 13 4.5V5.59971C12.6832 5.43777 12.3486 5.30564 12 5.20703V4.98121C10.5195 4.86895 9.18521 4.25528 8.00042 3.18917C6.81393 4.25491 5.47941 4.86879 4 4.98118V7.50126C4 8.93206 4.36125 10.061 5.01735 10.9401C5.06968 11.601 5.23884 12.229 5.50418 12.8035C3.84481 11.5888 3 9.81023 3 7.50126V4.5C3 4.22386 3.22386 4 3.5 4C5.02923 4 6.40416 3.38902 7.64728 2.14638ZM15 10.5C15 12.9853 12.9853 15 10.5 15C8.01472 15 6 12.9853 6 10.5C6 8.01472 8.01472 6 10.5 6C12.9853 6 15 8.01472 15 10.5ZM12.8536 8.64645C12.6583 8.45118 12.3417 8.45118 12.1464 8.64645L9.5 11.2929L8.85355 10.6464C8.65829 10.4512 8.34171 10.4512 8.14645 10.6464C7.95118 10.8417 7.95118 11.1583 8.14645 11.3536L9.14645 12.3536C9.34171 12.5488 9.65829 12.5488 9.85355 12.3536L12.8536 9.35355C13.0488 9.15829 13.0488 8.84171 12.8536 8.64645Z" fill="#212121"/>
</svg>

<svg xmlns="http://www.w3.org/2000/svg" width="16" height="16"><path d="M7.647 2.146a.5.5 0 0 1 .708 0C9.595 3.39 10.969 4 12.5 4a.5.5 0 0 1 .5.5v1.1a5.465 5.465 0 0 0-1-.393v-.226c-1.48-.112-2.815-.726-4-1.792-1.186 1.066-2.52 1.68-4 1.792v2.52c0 1.431.361 2.56 1.017 3.44.053.66.222 1.288.487 1.862C3.844 11.59 3 9.81 3 7.502V4.5a.5.5 0 0 1 .5-.5c1.53 0 2.904-.611 4.147-1.854ZM15 10.5a4.5 4.5 0 1 1-9 0 4.5 4.5 0 0 1 9 0Zm-2.146-1.854a.5.5 0 0 0-.708 0L9.5 11.293l-.646-.647a.5.5 0 0 0-.708.708l1 1a.5.5 0 0 0 .708 0l3-3a.5.5 0 0 0 0-.708Z"/></svg>
